app/images/logo/logo_netologiya.svg

<?xml version="1.0" encoding="UTF-8" standalone="no"?>
<svg width="180px" height="40px" viewBox="0 0 180 40" version="1.1" xmlns="http://www.w3.org/2000/svg" xmlns:xlink="http://www.w3.org/1999/xlink" xmlns:sketch="http://www.bohemiancoding.com/sketch/ns">
    <!-- Generator: Sketch 3.2.2 (9983) - http://www.bohemiancoding.com/sketch -->
    <title>Нетологоия</title>
    <desc>Created with Sketch.</desc>
    <defs></defs>
    <g id="III-Игры-Дизайнеров" stroke="none" stroke-width="1" fill="none" fill-rule="evenodd" sketch:type="MSPage">
        <g id="О-чемпионате-(дизайн)" sketch:type="MSArtboardGroup" transform="translate(-710.000000, -1479.000000)">
            <g id="3_block" sketch:type="MSLayerGroup" transform="translate(-1.000000, 1280.000000)">
                <g id="logos" transform="translate(471.000000, 184.000000)" sketch:type="MSShapeGroup">
                    <g id="Нетологоия" transform="translate(240.000000, 15.000000)">
                        <path d="M15.2541236,4.68886207 C15.2598539,2.20575862 17.2337865,0.196793103 19.6604157,0.204034483 C22.0887303,0.210586207 24.0522135,2.23024138 24.0468202,4.71403448 C24.0431124,6.71368966 22.7615393,8.40541379 20.9955843,8.98437931 L20.9955843,19.9205862 C20.9955843,19.9605862 20.934236,19.9943793 20.8610899,19.9943793 L18.440191,19.9943793 C18.3650225,19.9943793 18.3050225,19.9605862 18.3050225,19.9205862 L18.3050225,8.98437931 C16.5319888,8.40127586 15.2490674,6.6967931 15.2541236,4.68886207" id="Fill-1" fill="#B95390"></path>
                        <path d="M5.96224719,12.3514828 C4.2505618,10.5921724 4.25797753,7.74217241 5.97842697,5.99355172 C7.6988764,4.24113793 10.4841573,4.24872414 12.1978652,6.00941379 C13.5761798,7.42562069 13.8401124,9.54803448 12.9910112,11.2376897 L20.5513483,18.9704483 C20.5783146,18.9980345 20.5591011,19.0645862 20.5061798,19.1187241 L18.7938202,20.8694138 C18.7419101,20.9221724 18.6768539,20.9445862 18.6488764,20.9159655 L11.0885393,13.1811379 C9.4311236,14.0528621 7.34831461,13.7756207 5.96224719,12.3514828" id="Fill-3" fill="#4D5897"></path>
                        <path d="M4.68947191,24.4921724 C2.26317978,24.4856207 0.297674157,22.4659655 0.305426966,19.9838966 C0.311157303,17.5001034 2.28475281,15.4907931 4.71306742,15.497 C6.6681236,15.5001034 8.32250562,16.8121724 8.88913483,18.6187241 L19.5789101,18.6187241 C19.6180112,18.6187241 19.6503708,18.6807931 19.6503708,18.7556207 L19.6503708,21.2335517 C19.6503708,21.3087241 19.6180112,21.3701034 19.5789101,21.3701034 L8.8881236,21.3701034 C8.31846067,23.1856207 6.65329213,24.4963103 4.68947191,24.4921724" id="Fill-5" fill="#006FAC"></path>
                        <path d="M12.1810787,33.9978621 C10.4602921,35.7488966 7.67534831,35.7413103 5.96467416,33.9809655 C4.25130337,32.2192414 4.25804494,29.3713103 5.98017978,27.6192414 C7.36489888,26.2078621 9.44029213,25.9392414 11.0899551,26.8068276 L18.6502921,19.0730345 C18.6779326,19.0454483 18.7419775,19.0668276 18.7945618,19.119931 L20.5062472,20.8695862 C20.5588315,20.9247586 20.5787191,20.9913103 20.5514157,21.0175172 L12.9907416,28.7526897 C13.8425393,30.4471724 13.5718652,32.5802759 12.1810787,33.9978621" id="Fill-7" fill="#00A3DB"></path>
                        <path d="M24.0471236,35.2981724 C24.0410562,37.7823103 22.0671236,39.7923103 19.6404944,39.7840345 C17.2121798,39.7774828 15.2490337,37.7588621 15.2540899,35.2740345 C15.2577978,33.2764483 16.5397079,31.5826552 18.3066742,31.0036897 L18.3066742,20.0664483 C18.3066742,20.0261034 18.3663371,19.9943793 18.4411685,19.9943793 L20.8617303,19.9943793 C20.9355506,19.9943793 20.9958876,20.0261034 20.9958876,20.0664483 L20.9958876,31.0036897 C22.7689213,31.5878276 24.0521798,33.2902414 24.0471236,35.2981724" id="Fill-9" fill="#6AAD40"></path>
                        <path d="M33.3380225,27.6352069 C35.050382,29.3965862 35.0429663,32.2458966 33.3221798,33.9945172 C31.6024045,35.7465862 28.8174607,35.7393448 27.104427,33.9786552 C25.7251011,32.5621034 25.4611685,30.439 26.3102697,28.7503793 L18.7506067,21.0176207 C18.7226292,20.989 18.743191,20.9221034 18.794427,20.8693448 L20.5071236,19.1186552 C20.5597079,19.0645172 20.624427,19.0441724 20.6520674,19.0721034 L28.2117303,26.806931 C29.8698202,25.9352069 31.9529663,26.2131379 33.3380225,27.6352069" id="Fill-11" fill="#BBD236"></path>
                        <path d="M34.6116404,15.4962069 C37.0379326,15.5037931 39.0037753,17.5231034 38.9956854,20.0051724 C38.989618,22.4882759 37.0160225,24.4972414 34.5870337,24.492069 C32.6333258,24.4865517 30.9799551,23.1768966 30.4119775,21.3689655 L19.7218652,21.3689655 C19.6831011,21.3689655 19.6510787,21.3086207 19.6510787,21.2313793 L19.6510787,18.7555172 C19.6510787,18.6806897 19.6831011,18.6172414 19.7218652,18.6172414 L30.4126517,18.6172414 C30.9826517,16.8037931 32.6478202,15.4917241 34.6116404,15.4962069" id="Fill-13" fill="#E7772B"></path>
                        <path d="M27.1200337,5.99255172 C28.8411573,4.23944828 31.6261011,4.24772414 33.3374494,6.00703448 C35.0494719,7.76737931 35.0427303,10.616 33.3209326,12.3687586 C31.9365506,13.7811724 29.8604831,14.0497931 28.2108202,13.1811724 L20.6511573,20.916 C20.624191,20.9432414 20.5591348,20.9222069 20.5062135,20.8687586 L18.7945281,19.1184138 C18.7419438,19.0646207 18.7223933,18.998069 18.7496966,18.9704828 L26.3103708,11.236 C25.4578989,9.5397931 25.7289101,7.40772414 27.1200337,5.99255172" id="Fill-15" fill="#DF4F2A"></path>
                        <path d="M15.1520899,19.9838276 C15.1581573,17.3027931 17.2898427,15.1321034 19.9102921,15.141069 C22.532764,15.146931 24.6529888,17.3265862 24.6472584,20.0100345 C24.6408539,22.6907241 22.5091685,24.8600345 19.8877079,24.8531379 C17.2659101,24.8452069 15.1460225,22.6662414 15.1520899,19.9838276" id="Fill-17" fill="#00A3DB"></path>
                        <path d="M85.8671798,26.6268276 L85.8671798,24.6833793 L87.3563933,24.6833793 L87.3563933,15.6775172 L84.5074045,15.6775172 L84.5074045,16.9213103 L82.3676292,16.9213103 L82.3676292,13.5002759 L95.1833596,13.5002759 L95.1833596,16.9213103 L93.0530225,16.9213103 L93.0530225,15.6775172 L90.1541461,15.6775172 L90.1541461,24.6833793 L91.6413371,24.6833793 L91.6413371,26.6268276 L85.8671798,26.6268276 Z" id="Fill-19" fill="#424F5B"></path>
                        <path d="M140.508809,26.6268276 L140.508809,24.6833793 L141.73173,24.6833793 L141.73173,15.649931 L140.508809,15.649931 L140.508809,13.5002759 L150.462067,13.5002759 L150.462067,16.8926897 L148.341169,16.8926897 L148.341169,15.649931 L144.529146,15.649931 L144.529146,24.6833793 L145.738921,24.6833793 L145.738921,26.6268276 L140.508809,26.6268276 Z" id="Fill-21" fill="#424F5B"></path>
                        <path d="M173.197213,20.0633103 L175.739124,20.0633103 L175.739124,15.6498621 L173.582494,15.6498621 C171.529348,15.6498621 170.599348,16.4326207 170.599348,17.7153793 C170.599348,19.2912414 171.606202,20.0633103 173.197213,20.0633103 L173.197213,20.0633103 Z M175.739124,26.6267586 L175.739124,21.9267586 L173.069798,21.9267586 L171.28227,25.5243448 L170.436202,26.6267586 L167.78609,26.6267586 L167.78609,24.6822759 L168.960135,24.6822759 L170.656989,21.4012414 C168.73227,20.7146897 167.920921,19.4236552 167.920921,17.6643448 C167.920921,15.1574483 169.579348,13.5002069 173.300697,13.5002069 L179.759461,13.5002069 L179.759461,15.6498621 L178.535865,15.6498621 L178.535865,24.6833103 L179.759461,24.6833103 L179.759461,26.6267586 L175.739124,26.6267586 Z" id="Fill-23" fill="#424F5B"></path>
                        <path d="M132.121652,24.7497931 C134.559404,24.7497931 136.587607,22.753931 136.587607,19.9711724 C136.587607,17.213931 134.559404,15.2456552 132.121652,15.2456552 C129.65727,15.2456552 127.655022,17.213931 127.655022,19.9711724 C127.655022,22.753931 129.65727,24.7497931 132.121652,24.7497931 M132.121652,13.0394483 C135.997045,13.0394483 139.127831,15.953931 139.127831,19.9711724 C139.127831,24.013931 135.997045,26.9546207 132.121652,26.9546207 C128.246596,26.9546207 125.115135,24.013931 125.115135,19.9711724 C125.115135,15.953931 128.246596,13.0394483 132.121652,13.0394483" id="Fill-25" fill="#424F5B"></path>
                        <path d="M102.891944,24.7497931 C105.330371,24.7497931 107.358573,22.753931 107.358573,19.9711724 C107.358573,17.213931 105.330371,15.2456552 102.891944,15.2456552 C100.427562,15.2456552 98.4266629,17.213931 98.4266629,19.9711724 C98.4266629,22.753931 100.427562,24.7497931 102.891944,24.7497931 M102.891944,13.0394483 C106.767674,13.0394483 109.898124,15.953931 109.898124,19.9711724 C109.898124,24.013931 106.767674,26.9546207 102.891944,26.9546207 C99.0175618,26.9546207 95.885764,24.013931 95.885764,19.9711724 C95.885764,15.953931 99.0175618,13.0394483 102.891944,13.0394483" id="Fill-27" fill="#424F5B"></path>
                        <path d="M122.608416,24.6834483 L122.608416,13.5 L112.707067,13.5 L112.707067,15.65 L113.882798,15.65 C113.614146,22.0344828 113.330326,24.4162069 110.337742,24.4162069 L110.337742,26.7055172 C110.466506,26.7155172 110.860213,26.7055172 110.982573,26.7055172 C114.770663,26.7055172 116.083584,23.7917241 116.319876,15.6775862 L119.785719,15.6775862 L119.785719,24.6834483 L118.576281,24.6834483 L118.576281,26.6268966 L123.817854,26.6268966 L123.817854,24.6834483 L122.608416,24.6834483 Z" id="Fill-29" fill="#424F5B"></path>
                        <path d="M74.7234944,15.2458276 C76.8241685,15.2458276 78.617427,16.7085862 79.0745056,18.8765172 L70.3724831,18.8765172 C70.8248427,16.7085862 72.600573,15.2458276 74.7234944,15.2458276 L74.7234944,15.2458276 Z M78.1836067,23.0347931 C77.3591124,24.1027241 76.1092247,24.7499655 74.7234944,24.7499655 C72.5614719,24.7499655 70.7560787,23.2127241 70.3465281,20.9558276 L81.5560787,20.9558276 C82.0910225,16.9213448 79.3748427,13.0396207 74.7234944,13.0396207 C70.8491124,13.0396207 67.7955169,15.9541034 67.7955169,19.971 C67.7955169,24.0141034 70.8491124,26.9544483 74.7234944,26.9544483 C77.5252921,26.9544483 79.9300112,25.4134138 81.051809,23.0347931 L78.1836067,23.0347931 Z" id="Fill-31" fill="#424F5B"></path>
                        <path d="M60.6399101,13.5001379 L60.6399101,13.5015172 L60.6183371,13.5015172 L60.6183371,15.4484138 L61.8210337,15.4484138 L61.8210337,18.8546207 L55.8405843,18.8546207 L55.8405843,13.5001379 L51.8273258,13.5001379 L51.8273258,13.5015172 L51.8273258,15.1401379 L51.8273258,15.4484138 L53.0438427,15.4484138 L53.0438427,24.6835862 L51.8273258,24.6835862 L51.8273258,26.6266897 L57.0729438,26.6266897 L57.0729438,24.6835862 L55.8405843,24.6835862 L55.8405843,20.9032414 L61.8210337,20.9032414 L61.8210337,26.6266897 L65.8528315,26.6266897 L65.8528315,24.6835862 L65.8528315,24.6801379 L64.6187865,24.6801379 L64.6187865,15.4484138 L65.8528315,15.4484138 L65.8528315,15.1225517 L65.8528315,13.5015172 L65.8528315,13.5001379 L60.6399101,13.5001379 Z" id="Fill-33" fill="#424F5B"></path>
                        <path d="M164.712944,24.6740345 L164.712944,13.5002414 L162.121146,13.5002414 L155.550472,22.3471379 L155.550472,15.4485172 L156.770697,15.4485172 L156.770697,13.5016207 L151.535865,13.5002414 L151.535865,13.5016207 L151.535865,15.4485172 L152.75373,15.4485172 L152.75373,26.6267931 L154.806876,26.6267931 L154.832494,26.5733448 L161.889573,17.1492069 L161.889573,24.6740345 L160.710472,24.6740345 L160.710472,26.6205862 L165.945303,26.6267931 L165.945303,26.6205862 L165.945303,24.6833448 L165.945303,24.6740345 L164.712944,24.6740345 Z" id="Fill-35" fill="#424F5B"></path>
                    </g>
                </g>
            </g>
        </g>
    </g>
</svg>

<svg width="180" height="40" viewBox="0 0 180 40" xmlns="http://www.w3.org/2000/svg" xmlns:sketch="http://www.bohemiancoding.com/sketch/ns"><title>Нетологоия</title><desc>Created with Sketch.</desc><g sketch:type="MSShapeGroup" fill="none"><path d="M15.254 4.689c.006-2.483 1.98-4.492 4.406-4.485 2.428.007 4.392 2.026 4.386 4.51-.004 2-1.285 3.691-3.051 4.27v10.936c0 .04-.061.074-.134.074h-2.421c-.075 0-.135-.034-.135-.074v-10.936c-1.773-.583-3.056-2.288-3.051-4.296" fill="#B95390"/><path d="M5.962 12.351c-1.712-1.759-1.704-4.609.016-6.358 1.72-1.752 4.506-1.745 6.219.016 1.378 1.416 1.642 3.539.793 5.228l7.56 7.733c.027.028.008.094-.045.148l-1.712 1.751c-.052.053-.117.075-.145.047l-7.56-7.735c-1.657.872-3.74.594-5.126-.83" fill="#4D5897"/><path d="M4.689 24.492c-2.426-.007-4.392-2.026-4.384-4.508.006-2.484 1.979-4.493 4.408-4.487 1.955.003 3.609 1.315 4.176 3.122h10.69c.039 0 .071.062.071.137v2.478c0 .075-.032.137-.071.137h-10.691c-.57 1.816-2.235 3.126-4.199 3.122" fill="#006FAC"/><path d="M12.181 33.998c-1.721 1.751-4.506 1.743-6.216-.017-1.713-1.762-1.707-4.61.016-6.362 1.385-1.411 3.46-1.68 5.11-.812l7.56-7.734c.028-.028.092-.006.144.047l1.712 1.75c.053.055.072.122.045.148l-7.561 7.735c.852 1.694.581 3.828-.81 5.245" fill="#00A3DB"/><path d="M24.047 35.298c-.006 2.484-1.98 4.494-4.407 4.486-2.428-.007-4.391-2.025-4.386-4.51.004-1.998 1.286-3.691 3.053-4.27v-10.937c0-.04.06-.072.134-.072h2.421c.074 0 .134.032.134.072v10.937c1.773.584 3.056 2.287 3.051 4.294" fill="#6AAD40"/><path d="M33.338 27.635c1.712 1.761 1.705 4.611-.016 6.359-1.72 1.752-4.505 1.745-6.218-.016-1.379-1.417-1.643-3.54-.794-5.228l-7.56-7.733c-.028-.029-.007-.096.044-.148l1.713-1.751c.053-.054.117-.074.145-.047l7.56 7.735c1.658-.872 3.741-.594 5.126.828" fill="#BBD236"/><path d="M34.612 15.496c2.426.008 4.392 2.027 4.384 4.509-.006 2.483-1.98 4.492-4.409 4.487-1.954-.006-3.607-1.315-4.175-3.123h-10.69c-.039 0-.071-.06-.071-.138v-2.476c0-.075.032-.138.071-.138h10.691c.57-1.813 2.235-3.126 4.199-3.121" fill="#E7772B"/><path d="M27.12 5.993c1.721-1.753 4.506-1.745 6.217.014 1.712 1.76 1.705 4.609-.017 6.362-1.384 1.412-3.46 1.681-5.11.812l-7.56 7.735c-.027.027-.092.006-.145-.047l-1.712-1.75c-.053-.054-.072-.12-.045-.148l7.561-7.734c-.852-1.696-.581-3.828.81-5.243" fill="#DF4F2A"/><path d="M15.152 19.984c.006-2.681 2.138-4.852 4.758-4.843 2.622.006 4.743 2.186 4.737 4.869-.006 2.681-2.138 4.85-4.76 4.843-2.622-.008-4.742-2.187-4.736-4.869" fill="#00A3DB"/><path d="M85.867 26.627v-1.943h1.489v-9.006h-2.849v1.244h-2.14v-3.421h12.816v3.421h-2.13v-1.244h-2.899v9.006h1.487v1.943h-5.774z" fill="#424F5B"/><path d="M140.509 26.627v-1.943h1.223v-9.033h-1.223v-2.15h9.953v3.392h-2.121v-1.243h-3.812v9.033h1.21v1.943h-5.23z" fill="#424F5B"/><path d="M173.197 20.063h2.542v-4.413h-2.157c-2.053 0-2.983.783-2.983 2.066 0 1.576 1.007 2.348 2.598 2.348zm2.542 6.563v-4.7h-2.669l-1.788 3.598-.846 1.102h-2.65v-1.944h1.174l1.697-3.281c-1.925-.687-2.736-1.978-2.736-3.737 0-2.507 1.658-4.164 5.38-4.164h6.459v2.15h-1.224v9.033h1.224v1.943h-4.02z" fill="#424F5B"/><path d="M132.122 24.75c2.438 0 4.466-1.996 4.466-4.779 0-2.757-2.028-4.726-4.466-4.726-2.464 0-4.467 1.968-4.467 4.726 0 2.783 2.002 4.779 4.467 4.779m0-11.71c3.875 0 7.006 2.914 7.006 6.932 0 4.043-3.131 6.983-7.006 6.983-3.875 0-7.007-2.941-7.007-6.983 0-4.017 3.131-6.932 7.007-6.932" fill="#424F5B"/><path d="M102.892 24.75c2.438 0 4.467-1.996 4.467-4.779 0-2.757-2.028-4.726-4.467-4.726-2.464 0-4.465 1.968-4.465 4.726 0 2.783 2.001 4.779 4.465 4.779m0-11.71c3.876 0 7.006 2.914 7.006 6.932 0 4.043-3.13 6.983-7.006 6.983-3.874 0-7.006-2.941-7.006-6.983 0-4.017 3.132-6.932 7.006-6.932" fill="#424F5B"/><path d="M122.608 24.683v-11.183h-9.901v2.15h1.176c-.269 6.384-.552 8.766-3.545 8.766v2.289c.129.01.522 0 .645 0 3.788 0 5.101-2.914 5.337-11.028h3.466v9.006h-1.209v1.943h5.242v-1.943h-1.209z" fill="#424F5B"/><path d="M74.723 15.246c2.101 0 3.894 1.463 4.351 3.631h-8.702c.452-2.168 2.228-3.631 4.351-3.631zm3.46 7.789c-.824 1.068-2.074 1.715-3.46 1.715-2.162 0-3.967-1.537-4.377-3.794h11.21c.535-4.034-2.181-7.916-6.833-7.916-3.874 0-6.928 2.914-6.928 6.931 0 4.043 3.054 6.983 6.928 6.983 2.802 0 5.207-1.541 6.328-3.92h-2.868z" fill="#424F5B"/><path d="M60.64 13.5v.001h-.022v1.947h1.203v3.406h-5.98v-5.354h-4.013v1.948h1.217v9.235h-1.217v1.943h5.246v-1.943h-1.232v-3.78h5.98v5.723h4.032v-1.946h-1.234v-9.232h1.234v-1.948h-5.213z" fill="#424F5B"/><path d="M164.713 24.674v-11.174h-2.592l-6.571 8.847v-6.899h1.22v-1.947l-5.235-.001v1.948h1.218v11.178h2.053l.026-.053 7.057-9.424v7.525h-1.179v1.947l5.235.006v-1.952h-1.232z" fill="#424F5B"/></g></svg>
